packages/core/src/svgs/tokens/branded/FET.svg

<svg width="24" height="24" viewBox="0 0 24 24" fill="none" xmlns="http://www.w3.org/2000/svg">
<path d="M2 2H4.49999V4.5H2V2ZM8.24998 2H10.75V4.5H8.24998V2ZM8.24998 8.24999H10.75V10.7499H8.24998V8.24999ZM14.5 2H17V4.5H14.5V2ZM20.7499 2.625H22V3.875H20.7499V2.625ZM20.7499 8.87499H22V10.1251H20.7499V8.87499ZM15.125 8.87499H16.3749V10.1251H15.125V8.87499ZM15.125 15.1249H16.3749V16.375H15.125V15.1249ZM8.87498 15.1249H10.125V16.375H8.87498V15.1249ZM2.625 20.75H3.87499V21.9999H2.625V20.75ZM8.87498 20.75H10.125V21.9999H8.87498V20.75ZM15.125 20.75H16.3749V21.9999H15.125V20.75ZM20.7499 20.75H22V21.9999H20.7499V20.75ZM20.7499 15.1249H22V16.375H20.7499V15.1249ZM2 8.24999H4.49999V10.7499H2V8.24999ZM2 14.5H4.49999V16.9999H2V14.5Z" fill="url(#paint0_linear_364_2555)"/>
<defs>
<linearGradient id="paint0_linear_364_2555" x1="5.72141" y1="5.46785" x2="26.3393" y2="29.15" gradientUnits="userSpaceOnUse">
<stop stop-color="#1A1E21"/>
<stop offset="1" stop-color="#06060A"/>
</linearGradient>
</defs>
</svg>

<svg xmlns="http://www.w3.org/2000/svg" width="24" height="24" fill="none" viewBox="0 0 24 24">
    <path fill="url(#FET__a)" d="M2 2h2.5v2.5H2zm6.25 0h2.5v2.5h-2.5zm0 6.25h2.5v2.5h-2.5zM14.5 2H17v2.5h-2.5zm6.25.625H22v1.25h-1.25zm0 6.25H22v1.25h-1.25zm-5.625 0h1.25v1.25h-1.25zm0 6.25h1.25v1.25h-1.25zm-6.25 0h1.25v1.25h-1.25zm-6.25 5.625h1.25V22h-1.25zm6.25 0h1.25V22h-1.25zm6.25 0h1.25V22h-1.25zm5.625 0H22V22h-1.25zm0-5.625H22v1.25h-1.25zM2 8.25h2.5v2.5H2zm0 6.25h2.5V17H2z"/>
    <defs>
        <linearGradient id="FET__a" x1="5.721" x2="26.339" y1="5.468" y2="29.15" gradientUnits="userSpaceOnUse">
            <stop stop-color="#1A1E21"/>
            <stop offset="1" stop-color="#06060A"/>
        </linearGradient>
    </defs>
</svg>
